app/assets/images/badges/profil-1.svg

<svg width="48" height="48" viewBox="0 0 48 48" fill="none" xmlns="http://www.w3.org/2000/svg">
<path d="M17.2089 11.4C17.4809 11.4 17.7395 11.4827 17.9849 11.648C18.2302 11.808 18.4275 12.0267 18.5769 12.304C18.7262 12.576 18.8009 12.8747 18.8009 13.2C18.8009 13.52 18.7262 13.8187 18.5769 14.096C18.4275 14.3733 18.2302 14.5947 17.9849 14.76C17.7395 14.92 17.4809 15 17.2089 15H15.8169V16.512C15.8169 16.656 15.7742 16.7733 15.6889 16.864C15.6035 16.9547 15.4915 17 15.3529 17C15.2195 17 15.1102 16.9547 15.0249 16.864C14.9395 16.768 14.8969 16.6507 14.8969 16.512V11.888C14.8969 11.7493 14.9422 11.6347 15.0329 11.544C15.1289 11.448 15.2462 11.4 15.3849 11.4H17.2089ZM17.2089 14.088C17.3102 14.088 17.4089 14.0453 17.5049 13.96C17.6062 13.8747 17.6862 13.7653 17.7449 13.632C17.8089 13.4933 17.8409 13.3493 17.8409 13.2C17.8409 13.0507 17.8089 12.9093 17.7449 12.776C17.6862 12.6373 17.6062 12.528 17.5049 12.448C17.4089 12.3627 17.3102 12.32 17.2089 12.32H15.8169V14.088H17.2089ZM21.8612 12.64C22.0212 12.64 22.1545 12.6853 22.2612 12.776C22.3732 12.8667 22.4292 12.9733 22.4292 13.096C22.4292 13.2613 22.3865 13.3867 22.3012 13.472C22.2159 13.552 22.1145 13.592 21.9972 13.592C21.9172 13.592 21.8265 13.5733 21.7252 13.536C21.7092 13.5307 21.6719 13.52 21.6132 13.504C21.5599 13.488 21.5012 13.48 21.4372 13.48C21.2985 13.48 21.1652 13.5227 21.0372 13.608C20.9092 13.6933 20.8025 13.824 20.7172 14C20.6372 14.1707 20.5972 14.376 20.5972 14.616V16.512C20.5972 16.6507 20.5519 16.768 20.4612 16.864C20.3705 16.9547 20.2559 17 20.1172 17C19.9785 17 19.8639 16.9547 19.7732 16.864C19.6825 16.768 19.6372 16.6507 19.6372 16.512V13.208C19.6372 13.0693 19.6825 12.9547 19.7732 12.864C19.8639 12.768 19.9785 12.72 20.1172 12.72C20.2559 12.72 20.3705 12.768 20.4612 12.864C20.5519 12.9547 20.5972 13.0693 20.5972 13.208V13.312C20.7199 13.0933 20.8959 12.928 21.1252 12.816C21.3545 12.6987 21.5999 12.64 21.8612 12.64ZM27.0383 14.864C27.0383 15.2907 26.9423 15.6747 26.7503 16.016C26.5583 16.352 26.2943 16.6133 25.9583 16.8C25.6276 16.9867 25.2623 17.08 24.8623 17.08C24.4569 17.08 24.0889 16.9867 23.7583 16.8C23.4276 16.6133 23.1663 16.352 22.9743 16.016C22.7823 15.6747 22.6863 15.2907 22.6863 14.864C22.6863 14.4373 22.7823 14.056 22.9743 13.72C23.1663 13.3787 23.4276 13.1147 23.7583 12.928C24.0889 12.736 24.4569 12.64 24.8623 12.64C25.2623 12.64 25.6276 12.736 25.9583 12.928C26.2943 13.1147 26.5583 13.3787 26.7503 13.72C26.9423 14.056 27.0383 14.4373 27.0383 14.864ZM26.0783 14.864C26.0783 14.6027 26.0223 14.3707 25.9103 14.168C25.8036 13.96 25.6569 13.8 25.4703 13.688C25.2889 13.576 25.0863 13.52 24.8623 13.52C24.6383 13.52 24.4329 13.576 24.2463 13.688C24.0649 13.8 23.9183 13.96 23.8063 14.168C23.6996 14.3707 23.6463 14.6027 23.6463 14.864C23.6463 15.1253 23.6996 15.3573 23.8063 15.56C23.9183 15.7627 24.0649 15.92 24.2463 16.032C24.4329 16.144 24.6383 16.2 24.8623 16.2C25.0863 16.2 25.2889 16.144 25.4703 16.032C25.6569 15.92 25.8036 15.7627 25.9103 15.56C26.0223 15.3573 26.0783 15.1253 26.0783 14.864ZM29.8963 11.928C29.715 11.928 29.587 11.9813 29.5123 12.088C29.4376 12.1893 29.4003 12.3013 29.4003 12.424V12.8H30.1283C30.2563 12.8 30.363 12.8427 30.4483 12.928C30.5336 13.008 30.5763 13.112 30.5763 13.24C30.5763 13.368 30.5336 13.4747 30.4483 13.56C30.363 13.64 30.2563 13.68 30.1283 13.68H29.4003V16.512C29.4003 16.6507 29.355 16.768 29.2643 16.864C29.1736 16.9547 29.059 17 28.9203 17C28.7816 17 28.667 16.9547 28.5763 16.864C28.4856 16.768 28.4403 16.6507 28.4403 16.512V13.68H28.0083C27.8803 13.68 27.7736 13.64 27.6883 13.56C27.603 13.4747 27.5603 13.368 27.5603 13.24C27.5603 13.112 27.603 13.008 27.6883 12.928C27.7736 12.8427 27.8803 12.8 28.0083 12.8H28.4403V12.432C28.4403 12.032 28.5763 11.7067 28.8483 11.456C29.1256 11.2053 29.523 11.08 30.0403 11.08C30.2376 11.08 30.4083 11.12 30.5523 11.2C30.7016 11.28 30.7763 11.4027 30.7763 11.568C30.7763 11.696 30.739 11.8 30.6643 11.88C30.5896 11.96 30.499 12 30.3923 12C30.3656 12 30.3363 11.9973 30.3043 11.992C30.2776 11.9867 30.2483 11.9813 30.2163 11.976C30.0883 11.944 29.9816 11.928 29.8963 11.928ZM32.0803 16.512C32.0803 16.6507 32.035 16.768 31.9443 16.864C31.8536 16.9547 31.739 17 31.6003 17C31.4616 17 31.347 16.9547 31.2563 16.864C31.1656 16.768 31.1203 16.6507 31.1203 16.512V13.208C31.1203 13.0693 31.1656 12.9547 31.2563 12.864C31.347 12.768 31.4616 12.72 31.6003 12.72C31.739 12.72 31.8536 12.768 31.9443 12.864C32.035 12.9547 32.0803 13.0693 32.0803 13.208V16.512ZM31.5923 12.2C31.411 12.2 31.283 12.1707 31.2083 12.112C31.1336 12.0533 31.0963 11.9493 31.0963 11.8V11.648C31.0963 11.4987 31.1363 11.3947 31.2163 11.336C31.2963 11.2773 31.4243 11.248 31.6003 11.248C31.787 11.248 31.9176 11.2773 31.9923 11.336C32.067 11.3947 32.1043 11.4987 32.1043 11.648V11.8C32.1043 11.9547 32.0643 12.0613 31.9843 12.12C31.9096 12.1733 31.779 12.2 31.5923 12.2ZM34.1069 16.512C34.1069 16.6507 34.0589 16.768 33.9629 16.864C33.8722 16.9547 33.7575 17 33.6189 17C33.4855 17 33.3735 16.9547 33.2829 16.864C33.1922 16.768 33.1469 16.6507 33.1469 16.512V11.568C33.1469 11.4293 33.1922 11.3147 33.2829 11.224C33.3789 11.128 33.4962 11.08 33.6349 11.08C33.7682 11.08 33.8802 11.128 33.9709 11.224C34.0615 11.3147 34.1069 11.4293 34.1069 11.568V16.512Z" fill="#1E416A"/>
<circle cx="24" cy="24" r="22.5" stroke="#1E416A" stroke-width="3"/>
<path d="M25.0053 23.3C25.3553 23.3 25.6493 23.426 25.8873 23.678C26.1253 23.916 26.2443 24.217 26.2443 24.581V36.719C26.2443 37.083 26.1113 37.391 25.8453 37.643C25.5793 37.881 25.2503 38 24.8583 38C24.4663 38 24.1443 37.881 23.8923 37.643C23.6403 37.391 23.5143 37.083 23.5143 36.719V26.765L22.2123 27.563C22.0023 27.689 21.7783 27.752 21.5403 27.752C21.1903 27.752 20.8893 27.619 20.6373 27.353C20.3993 27.087 20.2803 26.793 20.2803 26.471C20.2803 26.247 20.3363 26.037 20.4483 25.841C20.5743 25.645 20.7353 25.491 20.9313 25.379L24.1023 23.489C24.3403 23.363 24.6413 23.3 25.0053 23.3Z" fill="#6E84FE"/>
</svg>

<svg width="48" height="48" fill="none" xmlns="http://www.w3.org/2000/svg"><path d="M17.209 11.4c.272 0 .53.083.776.248.245.16.442.379.592.656.15.272.224.57.224.896 0 .32-.075.619-.224.896-.15.277-.347.499-.592.664-.245.16-.504.24-.776.24h-1.392v1.512a.493.493 0 01-.128.352.44.44 0 01-.336.136.43.43 0 01-.328-.136.51.51 0 01-.128-.352v-4.624a.479.479 0 01.488-.488h1.824zm0 2.688c.101 0 .2-.043.296-.128a.89.89 0 00.24-.328 1.02 1.02 0 00.096-.432c0-.15-.032-.29-.096-.424a.81.81 0 00-.24-.328.444.444 0 00-.296-.128h-1.392v1.768h1.392zm4.652-1.448c.16 0 .293.045.4.136.112.09.168.197.168.32 0 .165-.042.29-.128.376a.43.43 0 01-.304.12.799.799 0 01-.272-.056 2.884 2.884 0 00-.112-.032.61.61 0 00-.176-.024.711.711 0 00-.4.128.957.957 0 00-.32.392c-.08.17-.12.376-.12.616v1.896a.493.493 0 01-.136.352.466.466 0 01-.344.136.466.466 0 01-.344-.136.493.493 0 01-.136-.352v-3.304c0-.139.046-.253.136-.344a.453.453 0 01.344-.144c.139 0 .253.048.344.144.09.09.136.205.136.344v.104c.123-.219.299-.384.528-.496.23-.117.475-.176.736-.176zm5.177 2.224c0 .427-.096.81-.288 1.152a2.035 2.035 0 01-.792.784 2.19 2.19 0 01-1.096.28c-.405 0-.773-.093-1.104-.28a2.05 2.05 0 01-.784-.784 2.308 2.308 0 01-.288-1.152c0-.427.096-.808.288-1.144.192-.341.454-.605.784-.792.33-.192.699-.288 1.104-.288.4 0 .766.096 1.096.288.336.187.6.45.792.792.192.336.288.717.288 1.144zm-.96 0c0-.261-.056-.493-.168-.696a1.165 1.165 0 00-1.048-.648c-.224 0-.43.056-.616.168a1.239 1.239 0 00-.44.48c-.106.203-.16.435-.16.696 0 .261.054.493.16.696.112.203.259.36.44.472.187.112.392.168.616.168a1.176 1.176 0 001.048-.64c.112-.203.168-.435.168-.696zm3.818-2.936c-.181 0-.309.053-.384.16a.553.553 0 00-.112.336v.376h.728c.128 0 .235.043.32.128.086.08.128.184.128.312a.434.434 0 01-.128.32.45.45 0 01-.32.12H29.4v2.832a.493.493 0 01-.136.352.466.466 0 01-.344.136.466.466 0 01-.344-.136.493.493 0 01-.136-.352V13.68h-.432a.45.45 0 01-.32-.12.434.434 0 01-.128-.32c0-.128.043-.232.128-.312a.434.434 0 01.32-.128h.432v-.368c0-.4.136-.725.408-.976.278-.25.675-.376 1.192-.376.198 0 .368.04.512.12.15.08.224.203.224.368a.439.439 0 01-.112.312.358.358 0 01-.272.12.542.542 0 01-.088-.008 2.807 2.807 0 00-.088-.016 1.367 1.367 0 00-.32-.048zm2.184 4.584a.493.493 0 01-.136.352.466.466 0 01-.344.136.466.466 0 01-.344-.136.493.493 0 01-.136-.352v-3.304c0-.139.046-.253.136-.344a.453.453 0 01.344-.144c.139 0 .254.048.344.144.091.09.136.205.136.344v3.304zm-.488-4.312c-.181 0-.309-.03-.384-.088-.074-.059-.112-.163-.112-.312v-.152c0-.15.04-.253.12-.312.08-.059.208-.088.384-.088.187 0 .318.03.392.088.075.059.112.163.112.312v.152c0 .155-.04.261-.12.32-.074.053-.205.08-.392.08zm2.515 4.312a.479.479 0 01-.488.488.456.456 0 01-.336-.136.493.493 0 01-.136-.352v-4.944a.479.479 0 01.488-.488c.133 0 .245.048.336.144.09.09.136.205.136.344v4.944z" fill="#1E416A"/><circle cx="24" cy="24" r="22.5" stroke="#1E416A" stroke-width="3"/><path d="M25.005 23.3c.35 0 .644.126.882.378.238.238.357.539.357.903v12.138c0 .364-.133.672-.399.924-.266.238-.595.357-.987.357s-.714-.119-.966-.357a1.257 1.257 0 01-.378-.924v-9.954l-1.302.798c-.21.126-.434.189-.672.189-.35 0-.65-.133-.903-.399-.238-.266-.357-.56-.357-.882 0-.224.056-.434.168-.63.126-.196.287-.35.483-.462l3.171-1.89c.238-.126.54-.189.903-.189z" fill="#6E84FE"/></svg>
